packages/ffe-icons/icons/filled/md/supervised_user_circle.svg

<svg xmlns="http://www.w3.org/2000/svg" height="24" viewBox="0 -960 960 960" width="24"><path d="M480.067-100.001q-78.836 0-148.204-29.92-69.369-29.92-120.682-81.21-51.314-51.291-81.247-120.629-29.933-69.337-29.933-148.173t29.92-148.204q29.92-69.369 81.21-120.682 51.291-51.314 120.629-81.247 69.337-29.933 148.173-29.933t148.204 29.92q69.369 29.92 120.682 81.21 51.314 51.291 81.247 120.629 29.933 69.337 29.933 148.173t-29.92 148.204q-29.92 69.369-81.21 120.682-51.291 51.314-120.629 81.247-69.337 29.933-148.173 29.933ZM380-430.001q54.154 0 92.076-37.923 37.923-37.922 37.923-92.076 0-54.154-37.923-92.076-37.922-37.923-92.076-37.923-54.154 0-92.076 37.923-37.923 37.922-37.923 92.076 0 54.154 37.923 92.076 37.922 37.923 92.076 37.923Zm280 47.693q41.031 0 69.361-28.331 28.331-28.33 28.331-69.361 0-41.031-28.331-69.361-28.33-28.331-69.361-28.331-41.031 0-69.361 28.331-28.331 28.33-28.331 69.361 0 41.031 28.331 69.361 28.33 28.331 69.361 28.331ZM480-160q81.923 0 150-37.307 68.076-37.308 111.846-99.846-19.846-5.616-40.308-9.231-20.461-3.615-41.538-3.615-57.231 0-127.038 32.923-69.808 32.923-110.961 111.615 14.692 3.23 28.999 4.346Q465.308-160 480-160Zm-131.616-28.308q29.231-59.691 66.038-92.768 36.807-33.077 65.961-52.77-23.23-7.076-50.23-11.615-27-4.538-53.615-4.538-43.846 0-84.961 10.807-41.115 10.808-79.807 31.193 24.846 38.769 59.653 69.807 34.808 31.038 76.961 49.884Z"/></svg>

<svg xmlns="http://www.w3.org/2000/svg" height="24" viewBox="0 -960 960 960" width="24"><path d="M480.07-100q-78.84 0-148.21-29.92t-120.68-81.21q-51.31-51.29-81.25-120.63Q100-401.1 100-479.93q0-78.84 29.92-148.21t81.21-120.68q51.29-51.31 120.63-81.25Q401.1-860 479.93-860q78.84 0 148.21 29.92t120.68 81.21q51.31 51.29 81.25 120.63Q860-558.9 860-480.07q0 78.84-29.92 148.21t-81.21 120.68q-51.29 51.31-120.63 81.25Q558.9-100 480.07-100ZM380-430q54.15 0 92.08-37.92Q510-505.85 510-560t-37.92-92.08Q434.15-690 380-690t-92.08 37.92Q250-614.15 250-560t37.92 92.08Q325.85-430 380-430Zm280 47.69q41.03 0 69.36-28.33T757.69-480q0-41.03-28.33-69.36T660-577.69q-41.03 0-69.36 28.33T562.31-480q0 41.03 28.33 69.36T660-382.31ZM480-160q81.92 0 150-37.31 68.08-37.3 111.85-99.84-19.85-5.62-40.31-9.23Q681.08-310 660-310q-57.23 0-127.04 32.92Q463.15-244.15 422-165.46q14.69 3.23 29 4.34 14.31 1.12 29 1.12Zm-131.62-28.31q29.23-59.69 66.04-92.77 36.81-33.07 65.96-52.77-23.23-7.07-50.23-11.61-27-4.54-53.61-4.54-43.85 0-84.96 10.81-41.12 10.81-79.81 31.19 24.85 38.77 59.65 69.81 34.81 31.04 76.96 49.88Z"/></svg>
